icons/chrome-fill.svg

<svg viewBox="0 0 24 24" fill="currentColor" xmlns="http://www.w3.org/2000/svg"><path d="M9.82726 21.7633C5.34912 20.7712 2 16.7767 2 12C2 10.1779 2.48734 8.46958 3.33878 6.99834L7.62189 14.4169C8.47396 15.9571 10.1152 17 12 17C12.2023 17 12.4018 16.988 12.5978 16.9646L9.82726 21.7633ZM12 22L16.2868 14.5751C16.7396 13.8229 17 12.9419 17 12C17 10.8744 16.6281 9.83566 16.0004 9H21.5422C21.8396 9.94704 22 10.9548 22 12C22 17.5228 17.5228 22 12 22ZM14.5721 13.545C14.0473 14.4168 13.0917 15 12 15C10.8897 15 9.92024 14.3968 9.40149 13.5002L9.37313 13.4501C9.13535 13.0203 9 12.526 9 12C9 10.3431 10.3431 9 12 9C13.6569 9 15 10.3431 15 12C15 12.5465 14.8539 13.0589 14.5985 13.5002L14.5721 13.545ZM4.6322 5.23859C6.46008 3.24783 9.08432 2 12 2C15.7014 2 18.9331 4.01099 20.6622 7H12C9.93635 7 8.1647 8.25019 7.40112 10.0345L4.6322 5.23859Z"/></svg>

<svg xmlns="http://www.w3.org/2000/svg" viewBox="0 0 24 24">
    <g>
        <path fill="none" d="M0 0h24v24H0z"/>
        <path d="M9.827 21.763C5.35 20.771 2 16.777 2 12c0-1.822.487-3.53 1.339-5.002l4.283 7.419a4.999 4.999 0 0 0 4.976 2.548l-2.77 4.798zM12 22l4.287-7.425A4.977 4.977 0 0 0 17 12a4.978 4.978 0 0 0-1-3h5.542c.298.947.458 1.955.458 3 0 5.523-4.477 10-10 10zm2.572-8.455a2.999 2.999 0 0 1-5.17-.045l-.029-.05a3 3 0 1 1 5.225.05l-.026.045zm-9.94-8.306A9.974 9.974 0 0 1 12 2a9.996 9.996 0 0 1 8.662 5H12a5.001 5.001 0 0 0-4.599 3.035L4.632 5.239z"/>
    </g>
</svg>
